X:305
T: Packy Sweeney's
M: 4/4
L: 1/8
S: B.Flaherty
Z: B.Black
R: reel
K: G
GFGA B2 AG|BdcA (3Bcd cA|GFGA (3BcB AG|AdcA BG G2 :|
gfge fdde|fefd cAFA|gfeg fed^c|dgfa g2 ga|
gfge fdde|fefd cAFA|GFGA B2 AG|(3Bcd cA BG G2 ||
